X:460
T: Sligo Jig
T: (Trip to) Killavil
S: "Ceol Rince na hEireann" 1/51
Z: B.Black
L: 1/8
M: 6/8
R: jig
K: Edor
d/c/|: BEE BEE|Bdf edB|BAF FEF|D2F dBA|
BEE BEE|Bdf edB|BFF dFF|FED E3 :|
e2f g2e|faf edB|BAF FEF|D2F dBA|
e2f g2e|faf edB|BAF dFF|FED E3 :|
